z_dist/img/icons/crypto/klaytn-KLAY.svg

<svg width="64" height="64" viewBox="0 0 64 64" fill="none" xmlns="http://www.w3.org/2000/svg">
<rect y="0.000244141" width="64" height="64" rx="4" fill="#4F473B"/>
<path d="M33.1328 31.9054L46.0492 44.7272C52.8372 37.5271 52.8372 26.2836 46.0492 19.0835" fill="white"/>
<path d="M32.1883 32.7542L19.4609 45.387L32.1883 50.6666L44.9157 45.387" fill="white"/>
<path d="M31.7193 31.435L44.9192 18.3295L32.7551 13.3335L20.6875 42.4667L31.7193 31.435Z" fill="white"/>
<path d="M13.3333 31.9057C13.3238 36.6749 15.1461 41.2645 18.4239 44.7276L31.0567 14.2749" fill="white"/>
</svg>

<svg width="64" height="64" fill="none" xmlns="http://www.w3.org/2000/svg"><rect width="64" height="64" rx="4" fill="#4F473B"/><path d="M33.133 31.905l12.916 12.822c6.788-7.2 6.788-18.443 0-25.643m-13.861 13.67L19.461 45.387l12.727 5.28 12.728-5.28M31.72 31.435l13.2-13.105-12.165-4.996-12.068 29.133L31.72 31.435zm-18.387.471a18.598 18.598 0 005.09 12.822l12.634-30.453" fill="#fff"/></svg>
